svg/fluentui-system-icons/ic_fluent_align_bottom_48_filled.svg

<svg width="48" height="48" viewBox="0 0 48 48" fill="none" xmlns="http://www.w3.org/2000/svg">
<path d="M5.25 41.5C4.55964 41.5 4 40.9404 4 40.25C4 39.5596 4.55964 39 5.25 39H42.75C43.4404 39 44 39.5596 44 40.25C44 40.9404 43.4404 41.5 42.75 41.5H5.25ZM26 32.25C26 34.5972 27.9028 36.5 30.25 36.5H35.75C38.0972 36.5 40 34.5972 40 32.25V17.25C40 14.9028 38.0972 13 35.75 13H30.25C27.9028 13 26 14.9028 26 17.25L26 32.25ZM12.25 36.5H17.75C20.0972 36.5 22 34.5972 22 32.25V10C22 7.65279 20.0972 5.75 17.75 5.75H12.25C9.90279 5.75 8 7.65279 8 10L8 32.25C8 34.5972 9.90279 36.5 12.25 36.5Z" fill="#212121"/>
</svg>

<svg xmlns="http://www.w3.org/2000/svg" width="48" height="48"><path d="M5.25 41.5a1.25 1.25 0 1 1 0-2.5h37.5a1.25 1.25 0 1 1 0 2.5H5.25ZM26 32.25a4.25 4.25 0 0 0 4.25 4.25h5.5A4.25 4.25 0 0 0 40 32.25v-15A4.25 4.25 0 0 0 35.75 13h-5.5A4.25 4.25 0 0 0 26 17.25v15ZM12.25 36.5h5.5A4.25 4.25 0 0 0 22 32.25V10a4.25 4.25 0 0 0-4.25-4.25h-5.5A4.25 4.25 0 0 0 8 10v22.25a4.25 4.25 0 0 0 4.25 4.25Z"/></svg>
